src/lib/packages/icons/src/assets/filled/chat-plus.svg

<svg width="24" height="24" viewBox="0 0 24 24" fill="none" xmlns="http://www.w3.org/2000/svg">
<path d="M13.514 18.63C13.472 19.283 13.544 19.908 13.71 20.494C13.759 20.667 13.658 20.848 13.481 20.878C13.002 20.957 12.506 20.996 12.003 20.996C10.663 20.996 9.38394 20.696 8.24394 20.166C7.80394 19.956 7.29399 19.956 6.82499 20.106L4.32499 20.946C3.53999 21.21 2.79097 20.462 3.05497 19.676L3.89506 17.177C4.04506 16.707 4.045 16.197 3.835 15.757C2.936 13.823 2.69911 11.486 3.46611 9.13701C4.5021 5.96501 7.32111 3.59401 10.6221 3.10301C16.2031 2.27301 21.001 6.57597 21.001 11.998C21.001 12.501 20.9611 12.997 20.8831 13.476C20.8541 13.654 20.6731 13.755 20.4991 13.705C19.9131 13.539 19.2881 13.467 18.6351 13.509C15.9341 13.685 13.689 15.93 13.514 18.63ZM21 17.75H19.25V16C19.25 15.586 18.914 15.25 18.5 15.25C18.086 15.25 17.75 15.586 17.75 16V17.75H16C15.586 17.75 15.25 18.086 15.25 18.5C15.25 18.914 15.586 19.25 16 19.25H17.75V21C17.75 21.414 18.086 21.75 18.5 21.75C18.914 21.75 19.25 21.414 19.25 21V19.25H21C21.414 19.25 21.75 18.914 21.75 18.5C21.75 18.086 21.414 17.75 21 17.75Z" fill="currentColor"/>
</svg>

<svg xmlns="http://www.w3.org/2000/svg" width="24" height="24" fill="none"><path fill="currentColor" d="M13.514 18.63c-.042.653.03 1.278.196 1.864.049.173-.052.354-.229.384a9.1 9.1 0 0 1-1.478.118c-1.34 0-2.62-.3-3.76-.83-.44-.21-.949-.21-1.418-.06l-2.5.84a1.003 1.003 0 0 1-1.27-1.27l.84-2.499c.15-.47.15-.98-.06-1.42-.899-1.934-1.136-4.271-.369-6.62 1.036-3.172 3.855-5.543 7.156-6.034 5.581-.83 10.379 3.473 10.379 8.895 0 .503-.04.999-.118 1.478-.029.178-.21.279-.384.229a5.514 5.514 0 0 0-1.864-.196c-2.7.176-4.946 2.421-5.121 5.121ZM21 17.75h-1.75V16a.75.75 0 0 0-1.5 0v1.75H16a.75.75 0 0 0 0 1.5h1.75V21a.75.75 0 0 0 1.5 0v-1.75H21a.75.75 0 0 0 0-1.5Z"/></svg>
